X: 1
T: Betty Likens
R: reel
Z: 2010 John Chambers <jc:trillian.mit.edu>
S: http://www.abbamoses.com/fiddledo/bettylikens.pdf
M: C|
L: 1/8
K: Amix
e2- | edef gfgf | ecef a2af | edef gfgf |1 edJc2 A2 :|2 edJc2 A4 ||
|: A3=c BAG[BG] | AGAd B2d2 | edef gedB |1 edBA G2E2 :|2 edB2 A2 |]
